X:410
%%etbk:tnset id:120,pos:3,rep:3x,ant:
%%etbk:wsite http://www.thesession.org/tunes/display/3681
%%etbk:pldat 2015-02-06T18:23,2014-12-06T16:35,2014-05-19T19:14,2014-04-08T17:46,2014-03-27T18:30,2014-03-09T15:01,2014-02-27T18:34,2014-02-25T19:42,2014-02-18T17:47,2013-11-23T16:36,2013-11-18T18:18,2013-10-07T18:34,2013-05-22T16:28
T: Ballydesmond 1, The
Z: Piano Box Version by Martin Fleischmann
H: Created 2013-02-19 /  Last Modified 2013-02-19
M: 2/4
L: 1/8
R: polka
K: Dmix
|: "D"!3!A>B AG | "A"!1!EF !3!GE | "D"!3!A>B AG | "A"!3!A!5!d d!4!c | "D"!3!A>B AG | "A"!1!EF !3!G2 | !3!AB !5!c!1!E | "D"{G}!2!E!1!D D2:|
"A"!5!ed !3!^cd | !5!e!1!A !3!^cd | !5!ed ^c!4!d | !2!e!5!a a2 | "A"!2!e!1!d !3!^c!4!d | !5!ed !3!^cd | !1!A>B !3!c!4!d | !2!ef gf |
"A"!2!e!1!d !3!^c!4!d | !5!eA !3!^cd | !5!ed !3!^c!4!d | !2!e!5!a a2 | "G"!2!e!4!g !1!d>!2!B | !3!c!5!e !4!d>!2!B | "D"!1!A!2!B !3!c!1!E | {G}!2!E!1!D D2 ||


